assets/img/braze_icons/gaming-pad-01.svg

<svg fill="none" height="24" viewBox="0 0 24 24" width="24" xmlns="http://www.w3.org/2000/svg"><path clip-rule="evenodd" d="m13.593 4h-3.1861c-1.27685-.00001-2.29415-.00001-3.11873.0653-.84581.067-1.56956.20712-2.2416.53162-1.08841.52556-1.99273 1.36759-2.5945 2.41579-.37156.64721-.56289 1.35913-.68997 2.19802-.1239.81787-.19638 1.83257-.28734 3.10617l-.24903 3.4864c-.16198 2.2677 1.63411 4.1967 3.90767 4.1967 1.16267 0 2.26528-.5164 3.0096-1.4096l.37516-.4502c.36541-.4385.47523-.565.59023-.6629.27305-.2325.60359-.3873.95701-.4482.1489-.0257.3163-.0291.8871-.0291h2.0949c.5708 0 .7382.0034.8871.0291.3534.0609.6839.2157.957.4482.115.0979.2248.2244.5902.6629l.3752.4502c.7443.8932 1.8469 1.4096 3.0096 1.4096 2.2735 0 4.0696-1.929 3.9077-4.1967l-.2491-3.4865c-.0909-1.2735-.1634-2.2882-.2873-3.10607-.1271-.83889-.3184-1.55081-.69-2.19802-.6018-1.0482-1.5061-1.89023-2.5945-2.41579-.672-.3245-1.3958-.46462-2.2416-.53162-.8246-.06531-1.8419-.06531-3.1187-.0653zm-4.593 5c0-.55228-.44772-1-1-1s-1 .44772-1 1v1h-1c-.55228 0-1 .4477-1 1s.44772 1 1 1h1v1c0 .5523.44772 1 1 1s1-.4477 1-1v-1h1c.5523 0 1-.4477 1-1s-.4477-1-1-1h-1zm5 3c0-.5523.4477-1 1-1h.01c.5523 0 1 .4477 1 1s-.4477 1-1 1h-.01c-.5523 0-1-.4477-1-1zm3-2c0-.55228.4477-1 1-1h.01c.5523 0 1 .44772 1 1 0 .5523-.4477 1-1 1h-.01c-.5523 0-1-.4477-1-1z" fill="#801ed7" fill-rule="evenodd"/></svg>

<svg width="24" height="24" viewBox="0 0 24 24" fill="none" xmlns="http://www.w3.org/2000/svg">
<path fill-rule="evenodd" clip-rule="evenodd" d="M13.593 4H10.4069C9.13005 3.99999 8.11275 3.99999 7.28817 4.0653C6.44236 4.1323 5.71861 4.27242 5.04657 4.59692C3.95816 5.12248 3.05384 5.96451 2.45207 7.01271C2.08051 7.65992 1.88918 8.37184 1.7621 9.21073C1.6382 10.0286 1.56572 11.0433 1.47476 12.3169L1.22573 15.8033C1.06375 18.071 2.85984 20 5.1334 20C6.29607 20 7.39868 19.4836 8.143 18.5904L8.51816 18.1402C8.88357 17.7017 8.99339 17.5752 9.10839 17.4773C9.38144 17.2448 9.71198 17.09 10.0654 17.0291C10.2143 17.0034 10.3817 17 10.9525 17H13.0474C13.6182 17 13.7856 17.0034 13.9345 17.0291C14.2879 17.09 14.6184 17.2448 14.8915 17.4773C15.0065 17.5752 15.1163 17.7017 15.4817 18.1402L15.8569 18.5904C16.6012 19.4836 17.7038 20 18.8665 20C21.14 20 22.9361 18.071 22.7742 15.8033L22.5251 12.3168C22.4342 11.0433 22.3617 10.0286 22.2378 9.21073C22.1107 8.37184 21.9194 7.65992 21.5478 7.01271C20.946 5.96451 20.0417 5.12248 18.9533 4.59692C18.2813 4.27242 17.5575 4.1323 16.7117 4.0653C15.8871 3.99999 14.8698 3.99999 13.593 4ZM9 9C9 8.44772 8.55228 8 8 8C7.44772 8 7 8.44772 7 9V10H6C5.44772 10 5 10.4477 5 11C5 11.5523 5.44772 12 6 12H7V13C7 13.5523 7.44772 14 8 14C8.55228 14 9 13.5523 9 13V12H10C10.5523 12 11 11.5523 11 11C11 10.4477 10.5523 10 10 10H9V9ZM14 12C14 11.4477 14.4477 11 15 11H15.01C15.5623 11 16.01 11.4477 16.01 12C16.01 12.5523 15.5623 13 15.01 13H15C14.4477 13 14 12.5523 14 12ZM17 10C17 9.44772 17.4477 9 18 9H18.01C18.5623 9 19.01 9.44772 19.01 10C19.01 10.5523 18.5623 11 18.01 11H18C17.4477 11 17 10.5523 17 10Z" fill="#801ED7"/>
</svg>
